actions/22x22-light/edit-cut.svg

<svg xmlns="http://www.w3.org/2000/svg" viewBox="0 0 22 22">
 <defs id="defs3051">
   <style type="text/css" id="current-color-scheme">
     .ColorScheme-Text {
       color:#4d4d4d;
     }
     </style>
 </defs>
   <path
      style="fill:currentColor;fill-opacity:1;stroke:none"
      d="m7.0136719 2-.4355469.7753906c-.2699231.4812667-.5038694.7087891-.6289062 1.1367188-.0625185.2139647-.0612584.4699226.0019531.7011718.0632171.2312494.1726285.4527981.3261719.7265626l3.3945312 6.0625002-1.7148438 3.023437c-.4483616-.277461-.8911737-.591797-1.4550781-.591797-1.6582865 0-3.0019531 1.388975-3.0019531 3.083985 0 1.695008 1.3436663 3.082031 3.0019531 3.082031 1.658287 0 3.0019532-1.387023 3.0019531-3.082031 0-.133955-.0209824-.259363-.0371093-.386719.4622484-1.003569.8985411-1.788627 1.8085941-2.248047.003037-.003375.002934-.004437.005859-.007812l1.253906 2.238281c-.017223.134034-.039062.265801-.039062.404297 0 1.695008 1.343665 3.082031 3.001953 3.082031 1.658287 0 3.001953-1.387023 3.001953-3.082031 0-1.69501-1.343667-3.083985-3.001953-3.083985-.56176 0-1.004412.308543-1.451172.583985l-1.708984-3.015625 3.398437-6.0625002v-.0019532c.152934-.2728193.261159-.4939397.324219-.7246094.063214-.2312492.066332-.4872071.003906-.7011718-.125138-.4278882-.358984-.6554521-.628906-1.1367188l-.435547-.7753906-3.994141 7.0488281zm-.5117188 13.884766c.5564078 0 .9960938.448401.9960938 1.033203s-.439686 1.03125-.9960938 1.03125-.9941406-.446448-.9941406-1.03125c0-.584803.4377328-1.033203.9941406-1.033203zm8.9960939 0c .556407 0 .99414.448401.994141 1.033203 0 .584802-.437734 1.03125-.994141 1.03125-.556409 0-.996094-.446448-.996094-1.03125 0-.584803.439685-1.033203.996094-1.033203z"
      class="ColorScheme-Text" />
</svg>

<svg xmlns="http://www.w3.org/2000/svg" viewBox="0 0 22 22">
  <defs id="defs3051">
    <style type="text/css" id="current-color-scheme">
      .ColorScheme-Text {
        color:#4d4d4d
      }
      </style>
  </defs>
    <path
       style="fill:currentColor;fill-opacity:1;stroke:none"
       class="ColorScheme-Text"
       d="M 7.0136719 2 L 6.578125 2.7753906 C 6.3082019 3.2566573 6.0742556 3.4841797 5.9492188 3.9121094 C 5.8867003 4.1260741 5.8879604 4.382032 5.9511719 4.6132812 C 6.014389 4.8445306 6.1238004 5.0660793 6.2773438 5.3398438 L 9.671875 11.402344 L 7.9570312 14.425781 C 7.5086696 14.14832 7.0658575 13.833984 6.5019531 13.833984 C 4.8436666 13.833984 3.5 15.222959 3.5 16.917969 C 3.5 18.612977 4.8436663 20 6.5019531 20 C 8.1602401 20 9.5039063 18.612977 9.5039062 16.917969 C 9.5039062 16.784014 9.4829238 16.658606 9.4667969 16.53125 C 9.9290453 15.527681 10.365338 14.742623 11.275391 14.283203 C 11.278428 14.279828 11.278325 14.278766 11.28125 14.275391 L 12.535156 16.513672 C 12.517933 16.647706 12.496094 16.779473 12.496094 16.917969 C 12.496094 18.612977 13.839759 20 15.498047 20 C 17.156334 20 18.5 18.612977 18.5 16.917969 C 18.5 15.222959 17.156333 13.833984 15.498047 13.833984 C 14.936287 13.833984 14.493635 14.142527 14.046875 14.417969 L 12.337891 11.402344 L 15.736328 5.3398438 L 15.736328 5.3378906 C 15.889262 5.0650713 15.997487 4.8439509 16.060547 4.6132812 C 16.123761 4.382032 16.126879 4.1260741 16.064453 3.9121094 C 15.939315 3.4842212 15.705469 3.2566573 15.435547 2.7753906 L 15 2 L 11.005859 9.0488281 L 7.0136719 2 z M 6.5019531 15.884766 C 7.0583609 15.884766 7.4980469 16.333167 7.4980469 16.917969 C 7.4980469 17.502771 7.0583609 17.949219 6.5019531 17.949219 C 5.9455453 17.949219 5.5078125 17.502771 5.5078125 16.917969 C 5.5078125 16.333166 5.9455453 15.884766 6.5019531 15.884766 z M 15.498047 15.884766 C 16.054454 15.884766 16.492187 16.333167 16.492188 16.917969 C 16.492188 17.502771 16.054454 17.949219 15.498047 17.949219 C 14.941638 17.949219 14.501953 17.502771 14.501953 16.917969 C 14.501953 16.333166 14.941638 15.884766 15.498047 15.884766 z "
        />
</svg>
